src/images/v2/404.svg

<svg fill="none" height="245" viewBox="0 0 727 245" width="727" xmlns="http://www.w3.org/2000/svg"><g fill="#231f20"><path d="m346.577 214.382c.176.142.379.246.597.306s.446.074.67.041l.166.046 25.354-9.287c.284-.076.541-.228.745-.44.204-.211.346-.474.411-.76.071-.31.051-.633-.057-.932s-.3-.56-.552-.753l-22.329-16.26c-.308-.24-.693-.359-1.083-.334-.389.024-.756.191-1.031.468-.259.245-.431.568-.487.92s.005.712.176 1.026l5.334 13.09-8.155 10.415c-.224.243-.371.546-.425.872-.054.327-.012.661.122.964.129.246.316.458.544.618zm24.354-10.767-20.663 7.495 6.514-8.343c.241-.251.396-.571.443-.916.046-.344-.018-.694-.185-1l-4.306-10.576z"/><path d="m404.26 233.962c8.687.896 18.235-1.586 28.644-7.447 11.745-6.573 19.202-15.015 21.985-25.141 2.949-10.728.542-23.26-6.957-36.276-3.456-5.915-7.858-11.224-13.032-15.716-4.125-3.518-7.749-7.583-10.771-12.083-1.71-2.605-3.197-5.349-4.444-8.205-.568-1.316-1.215-2.597-1.938-3.834-2.504-4.351-5.841-8.166-9.82-11.227-3.98-3.062-8.524-5.311-13.372-6.618-4.849-1.307-9.908-1.647-14.889-1-4.98.647-9.784 2.268-14.138 4.77-4.353 2.502-8.171 5.836-11.235 9.812-3.064 3.977-5.314 8.517-6.622 13.362-1.308 4.846-1.648 9.901-1.001 14.878.647 4.976 2.269 9.777 4.773 14.127.897 1.547 1.9 3.03 3.001 4.439 1.764 2.29 3.337 4.722 4.701 7.271 2.82 5.052 4.884 10.491 6.126 16.142 1.376 6.133 3.663 12.026 6.785 17.483 9.176 15.528 19.769 23.947 32.204 25.263zm-16.144-124.154c5.452.595 10.685 2.474 15.27 5.482s8.39 7.059 11.105 11.821c.679 1.085 1.287 2.213 1.818 3.378 1.345 3.062 2.959 6 4.823 8.777 3.171 4.787 6.986 9.115 11.338 12.863 4.867 4.236 9.015 9.233 12.28 14.796 7.017 12.169 9.304 23.754 6.592 33.542-2.521 9.172-9.314 16.903-20.19 23-23.783 13.401-41.606 8.13-55.759-16.508-2.961-5.146-5.144-10.701-6.479-16.484-1.31-5.986-3.487-11.749-6.465-17.105-1.495-2.723-3.208-5.32-5.123-7.766-4.2-5.338-6.734-11.794-7.284-18.562-.551-6.769.907-13.549 4.189-19.494 3.283-5.946 8.246-10.793 14.269-13.937s12.84-4.445 19.599-3.741z"/><path d="m388.721 139.542c.369.568.605 1.213.688 1.885l1.672 12.844c.028.183-.001.371-.081.537-.08.167-.209.306-.369.399-.161.093-.345.136-.53.123s-.362-.081-.507-.195l-10.299-7.87c-.533-.419-.974-.942-1.296-1.538z"/><path d="m377.641 144.914c-.231-.596-.337-1.232-.312-1.871l.418-8.588c.009-.154.056-.303.138-.434.081-.131.194-.24.328-.316.135-.076.286-.118.44-.121s.307.032.444.103l7.652 3.93c.558.297 1.054.699 1.461 1.182z"/></g><path d="m407.502 152.218c-5.287-1.451-8.396-6.91-6.944-12.193 1.452-5.284 6.915-8.39 12.202-6.939s8.396 6.91 6.944 12.193-6.916 8.39-12.202 6.939z" fill="#f7a6a8"/><path d="m368.407 174.85c-5.287-1.451-8.395-6.911-6.943-12.194s6.915-8.389 12.202-6.938 8.396 6.91 6.943 12.193c-1.452 5.283-6.915 8.39-12.202 6.939z" fill="#f7a6a8"/><path d="m397.425 136.308c4.519 7.935 13.62 11.303 20.264 7.525 2.176-1.297 3.886-3.25 4.883-5.578-1.795-2.695-3.352-5.541-4.652-8.507-2.853-6.513-7.534-12.06-13.475-15.972-1.186.257-2.325.698-3.374 1.306-6.623 3.783-8.232 13.295-3.646 21.226z" fill="#231f20"/><path d="m353.07 162.405c.86 1.48 1.82 2.899 2.874 4.248 1.856 2.37 3.517 4.885 4.967 7.522 2.334.157 4.663-.376 6.696-1.532 6.582-3.794 8.146-13.385 3.627-21.32-4.518-7.934-13.62-11.303-20.263-7.525-1.059.581-2.018 1.327-2.841 2.211.309 5.782 2.003 11.405 4.94 16.396z" fill="#231f20"/><path d="m407.301 131.742c-1.193-.327-1.894-1.559-1.567-2.75.328-1.192 1.56-1.893 2.753-1.566 1.193.328 1.894 1.559 1.566 2.751-.327 1.192-1.56 1.893-2.752 1.565z" fill="#fff"/><path d="m359.57 160.529c-1.193-.327-1.894-1.559-1.567-2.751.328-1.192 1.56-1.892 2.753-1.565s1.894 1.559 1.566 2.751c-.327 1.192-1.56 1.892-2.752 1.565z" fill="#fff"/><path d="m355.147 85.7339c1.057.1729 2.065.569 2.957 1.162.892.5929 1.647 1.369 2.215 2.2765.699.8832 1.179 1.9184 1.403 3.0217.223 1.1033.183 2.2436-.117 3.3287-.853 2.2482-2.435 4.1461-4.494 5.3912l1.962 3.076-2.538 1.819-3.541-4.84.915-.633c1.781-1.1281 3.259-2.6747 4.305-4.5048.355-.7798.479-1.6446.359-2.4929-.12-.8482-.48-1.6445-1.038-2.2951-.34-.5766-.797-1.0759-1.342-1.4662-.544-.3903-1.164-.6629-1.82-.8006-.672-.0969-1.357-.0596-2.015.1095s-1.276.4667-1.819.8758c-1.171.7099-2.023 1.844-2.378 3.166-.121.6395-.107 1.2972.04 1.9312s.424 1.2305.815 1.7515l-2.73 1.7915c-.825-1.1552-1.312-2.5173-1.406-3.9337-.086-1.3572.224-2.7101.892-3.8949.764-1.3109 1.821-2.4274 3.088-3.2625 1.821-1.3012 4.067-1.8647 6.287-1.5769zm5.319 26.0131c-.31-.058-.606-.178-.87-.353-.263-.175-.488-.401-.662-.665-.184-.26-.313-.555-.378-.867s-.065-.634.001-.946c.058-.311.178-.606.354-.869.175-.263.401-.488.665-.662.247-.175.528-.297.825-.356.296-.06.603-.056.898.01.613.135 1.153.499 1.508 1.016.356.518.501 1.151.407 1.772-.046.304-.156.594-.323.852-.168.258-.388.477-.647.642-.252.188-.539.323-.845.396-.306.074-.623.083-.933.03z" fill="#231f20"/><path clip-rule="evenodd" d="m305.615 8.21864c-46.615 15.31986-78.042 52.39226-78.042 114.01436 0 84.19 58.171 122.586 133.616 122.586 75.446 0 133.616-38.396 133.616-122.586 0-83.8369-58.17-122.233-133.616-122.233-19.612 0-38.057 2.59467-54.616 7.90776l14.257 31.01204 17.485-26.6369 25.783 33.1821c61.907 1.0215 82.761 34.7959 82.761 76.768 0 42.623-21.506 77.145-85.67 77.145s-85.669-34.522-85.669-77.145c0-42.6228 21.505-76.7918 85.669-76.7918.547 0 1.09.0025 1.631.0074l-24.436-31.4482-17.708 26.9767zm273.113 149.03736-.147-.272-36.856 45.916h-3.431l-23.497-29.539 1.379-15.55 145.25-154.64068h1.41l30.319-1.76129v156.40197h33.845l-3.878 45.089h-29.967v40.51h-47.594v-40.51h-42.09l-24.442-45.089h66.532l.353-74.6782zm23.605 45.644-23.914-44.117-35.412 44.117zm-65.316 0-22.348-28.094-.961 10.834v.352l-1.41 16.908zm-459.1187-108.2115.7336.4775 27.7221 18.044 27.262-30.0772-.352 74.6782h-67.3373l39.7473-43.851-26.8541-17.4784-1.4437 32.6294-.0375.847-.7234-.443-29.2955-17.954-43.44176 46.25-2.46784 27.829v.352l-1.4102 16.908h133.264v40.51h47.594v-40.51h29.966l3.878-45.089h-33.844v-156.40197l-30.32 1.76129h-1.41l-101.109 107.64668 28.3956 17.402 1.445-32.656z" fill="#4fc4f9" fill-rule="evenodd"/></svg>

<svg width="727" height="245" viewBox="0 0 727 245" fill="none" xmlns="http://www.w3.org/2000/svg">
<path d="M346.577 214.382C346.753 214.524 346.956 214.628 347.174 214.688C347.392 214.748 347.62 214.762 347.844 214.729L348.01 214.775L373.364 205.488C373.648 205.412 373.905 205.26 374.109 205.048C374.313 204.837 374.455 204.574 374.52 204.288C374.591 203.978 374.571 203.655 374.463 203.356C374.355 203.057 374.163 202.796 373.911 202.603L351.582 186.343C351.274 186.103 350.889 185.984 350.499 186.009C350.11 186.033 349.743 186.2 349.468 186.477C349.209 186.722 349.037 187.045 348.981 187.397C348.925 187.749 348.986 188.109 349.157 188.423L354.491 201.513L346.336 211.928C346.112 212.171 345.965 212.474 345.911 212.8C345.857 213.127 345.899 213.461 346.033 213.764C346.162 214.01 346.349 214.222 346.577 214.382V214.382ZM370.931 203.615L350.268 211.11L356.782 202.767C357.023 202.516 357.178 202.196 357.225 201.851C357.271 201.507 357.207 201.157 357.04 200.851L352.734 190.275L370.931 203.615Z" fill="#231F20"/>
<path d="M404.26 233.962C412.947 234.858 422.495 232.376 432.904 226.515C444.649 219.942 452.106 211.5 454.889 201.374C457.838 190.646 455.431 178.114 447.932 165.098C444.476 159.183 440.074 153.874 434.9 149.382C430.775 145.864 427.151 141.799 424.129 137.299C422.419 134.694 420.932 131.95 419.685 129.094C419.117 127.778 418.47 126.497 417.747 125.26C415.243 120.909 411.906 117.094 407.927 114.033C403.947 110.971 399.403 108.722 394.555 107.415C389.706 106.108 384.647 105.768 379.666 106.415C374.686 107.062 369.882 108.683 365.528 111.185C361.175 113.687 357.357 117.021 354.293 120.997C351.229 124.974 348.979 129.514 347.671 134.359C346.363 139.205 346.023 144.26 346.67 149.237C347.317 154.213 348.939 159.014 351.443 163.364C352.34 164.911 353.343 166.394 354.444 167.803C356.208 170.093 357.781 172.525 359.145 175.074C361.965 180.126 364.029 185.565 365.271 191.216C366.647 197.349 368.934 203.242 372.056 208.699C381.232 224.227 391.825 232.646 404.26 233.962ZM388.116 109.808C393.568 110.403 398.801 112.282 403.386 115.29C407.971 118.298 411.776 122.349 414.491 127.111C415.17 128.196 415.778 129.324 416.309 130.489C417.654 133.551 419.268 136.489 421.132 139.266C424.303 144.053 428.118 148.381 432.47 152.129C437.337 156.365 441.485 161.362 444.75 166.925C451.767 179.094 454.054 190.679 451.342 200.467C448.821 209.639 442.028 217.37 431.152 223.467C407.369 236.868 389.546 231.597 375.393 206.959C372.432 201.813 370.249 196.258 368.914 190.475V190.475C367.604 184.489 365.427 178.726 362.449 173.37C360.954 170.647 359.241 168.05 357.326 165.604C353.126 160.266 350.592 153.81 350.042 147.042C349.491 140.273 350.949 133.493 354.231 127.548C357.514 121.602 362.477 116.755 368.5 113.611C374.523 110.467 381.34 109.166 388.099 109.87L388.116 109.808Z" fill="#231F20"/>
<path d="M388.721 139.542C389.09 140.11 389.326 140.755 389.409 141.427L391.081 154.271C391.109 154.454 391.08 154.642 391 154.808C390.92 154.975 390.791 155.114 390.631 155.207C390.47 155.3 390.286 155.343 390.101 155.33C389.916 155.317 389.739 155.249 389.594 155.135L379.295 147.265C378.762 146.846 378.321 146.323 377.999 145.727L388.721 139.542Z" fill="#231F20"/>
<path d="M377.641 144.914C377.41 144.318 377.304 143.682 377.329 143.043L377.747 134.455C377.756 134.301 377.803 134.152 377.885 134.021C377.966 133.89 378.079 133.781 378.213 133.705C378.348 133.629 378.499 133.587 378.653 133.584C378.807 133.581 378.96 133.616 379.097 133.687L386.749 137.617C387.307 137.914 387.803 138.316 388.21 138.799L377.641 144.914Z" fill="#231F20"/>
<path d="M407.502 152.218C402.215 150.767 399.106 145.308 400.558 140.025C402.01 134.741 407.473 131.635 412.76 133.086C418.047 134.537 421.156 139.996 419.704 145.279C418.252 150.562 412.788 153.669 407.502 152.218Z" fill="#F7A6A8"/>
<path d="M368.407 174.85C363.12 173.399 360.012 167.939 361.464 162.656C362.916 157.373 368.379 154.267 373.666 155.718C378.953 157.169 382.062 162.628 380.609 167.911C379.157 173.194 373.694 176.301 368.407 174.85Z" fill="#F7A6A8"/>
<path d="M397.425 136.308C401.944 144.243 411.045 147.611 417.689 143.833C419.865 142.536 421.575 140.583 422.572 138.255C420.777 135.56 419.22 132.714 417.92 129.748C415.067 123.235 410.386 117.688 404.445 113.776C403.259 114.033 402.12 114.474 401.071 115.082C394.448 118.865 392.839 128.377 397.425 136.308Z" fill="#231F20"/>
<path d="M353.07 162.405C353.93 163.885 354.89 165.304 355.944 166.653C357.8 169.023 359.461 171.538 360.911 174.175C363.245 174.332 365.574 173.799 367.607 172.643C374.189 168.849 375.753 159.258 371.234 151.323C366.716 143.389 357.614 140.02 350.971 143.798C349.912 144.379 348.953 145.125 348.13 146.009C348.439 151.791 350.133 157.414 353.07 162.405V162.405Z" fill="#231F20"/>
<path d="M407.301 131.742C406.108 131.415 405.407 130.183 405.734 128.992C406.062 127.8 407.294 127.099 408.487 127.426C409.68 127.754 410.381 128.985 410.053 130.177C409.726 131.369 408.493 132.07 407.301 131.742Z" fill="white"/>
<path d="M359.57 160.529C358.377 160.202 357.676 158.97 358.003 157.778C358.331 156.586 359.563 155.886 360.756 156.213C361.949 156.54 362.65 157.772 362.322 158.964C361.995 160.156 360.762 160.856 359.57 160.529Z" fill="white"/>
<path d="M355.147 85.7339C356.204 85.9068 357.212 86.3029 358.104 86.8959C358.996 87.4888 359.751 88.2649 360.319 89.1724C361.018 90.0556 361.498 91.0908 361.722 92.1941C361.945 93.2974 361.905 94.4377 361.605 95.5228C360.752 97.771 359.17 99.6689 357.111 100.914L359.073 103.99L356.535 105.809L352.994 100.969L353.909 100.336C355.69 99.2079 357.168 97.6613 358.214 95.8312C358.569 95.0514 358.693 94.1866 358.573 93.3383C358.453 92.4901 358.093 91.6938 357.535 91.0432C357.195 90.4666 356.738 89.9673 356.193 89.577C355.649 89.1867 355.029 88.9141 354.373 88.7764C353.701 88.6795 353.016 88.7168 352.358 88.8859C351.7 89.055 351.082 89.3526 350.539 89.7617C349.368 90.4716 348.516 91.6057 348.161 92.9277C348.04 93.5672 348.054 94.2249 348.201 94.8589C348.348 95.4929 348.625 96.0894 349.016 96.6104L346.286 98.4019C345.461 97.2467 344.974 95.8846 344.88 94.4682C344.794 93.111 345.104 91.7581 345.772 90.5733C346.536 89.2624 347.593 88.1459 348.86 87.3108C350.681 86.0096 352.927 85.4461 355.147 85.7339ZM360.466 111.747C360.156 111.689 359.86 111.569 359.596 111.394C359.333 111.219 359.108 110.993 358.934 110.729C358.75 110.469 358.621 110.174 358.556 109.862C358.491 109.55 358.491 109.228 358.557 108.916C358.615 108.605 358.735 108.31 358.911 108.047C359.086 107.784 359.312 107.559 359.576 107.385C359.823 107.21 360.104 107.088 360.401 107.029C360.697 106.969 361.004 106.973 361.299 107.039C361.912 107.174 362.452 107.538 362.807 108.055C363.163 108.573 363.308 109.206 363.214 109.827C363.168 110.131 363.058 110.421 362.891 110.679C362.723 110.937 362.503 111.156 362.244 111.321C361.992 111.509 361.705 111.644 361.399 111.717C361.093 111.791 360.776 111.8 360.466 111.747V111.747Z" fill="#231F20"/>
<path fill-rule="evenodd" clip-rule="evenodd" d="M305.615 8.21864C259 23.5385 227.573 60.6109 227.573 122.233C227.573 206.423 285.744 244.819 361.189 244.819C436.635 244.819 494.805 206.423 494.805 122.233C494.805 38.3961 436.635 0 361.189 0C341.577 0 323.132 2.59467 306.573 7.90776L320.83 38.9198L338.315 12.2829L364.098 45.465C426.005 46.4865 446.859 80.2609 446.859 122.233C446.859 164.856 425.353 199.378 361.189 199.378C297.025 199.378 275.52 164.856 275.52 122.233C275.52 79.6102 297.025 45.4412 361.189 45.4412C361.736 45.4412 362.279 45.4437 362.82 45.4486L338.384 14.0004L320.676 40.9771L305.615 8.21864ZM578.728 157.256L578.581 156.984L541.725 202.9H538.294L514.797 173.361L516.176 157.811L661.426 3.17032H662.836L693.155 1.40903V157.811H727L723.122 202.9H693.155V243.41H645.561V202.9H603.471L579.029 157.811H645.561L645.914 83.1328L578.728 157.256ZM602.333 202.9L578.419 158.783L543.007 202.9H602.333ZM537.017 202.9L514.669 174.806L513.708 185.64V185.992L512.298 202.9H537.017ZM77.8983 94.6885L78.6319 95.166L106.354 113.21L133.616 83.1328L133.264 157.811H65.9267L105.674 113.96L78.8199 96.4816L77.3762 129.111L77.3387 129.958L76.6153 129.515L47.3198 111.561L3.87804 157.811L1.4102 185.64V185.992L0 202.9H133.264V243.41H180.858V202.9H210.824L214.702 157.811H180.858V1.40903L150.538 3.17032H149.128L48.019 110.817L76.4146 128.219L77.8596 95.563L77.8983 94.6885Z" fill="#4FC4F9"/>
</svg>
